src/symbolic/apps/preferences-desktop-wallpaper-symbolic.svg

<?xml version="1.0" encoding="UTF-8" standalone="no"?>
<svg
   xmlns:dc="http://purl.org/dc/elements/1.1/"
   xmlns:cc="http://creativecommons.org/ns#"
   xmlns:rdf="http://www.w3.org/1999/02/22-rdf-syntax-ns#"
   xmlns:svg="http://www.w3.org/2000/svg"
   xmlns="http://www.w3.org/2000/svg"
   xmlns:sodipodi="http://sodipodi.sourceforge.net/DTD/sodipodi-0.dtd"
   xmlns:inkscape="http://www.inkscape.org/namespaces/inkscape"
   width="16"
   height="16"
   version="1.1"
   id="svg10"
   sodipodi:docname="preferences-desktop-wallpaper-symbolic.svg"
   inkscape:version="0.92.4 (5da689c313, 2019-01-14)">
  <metadata
     id="metadata16">
    <rdf:RDF>
      <cc:Work
         rdf:about="">
        <dc:format>image/svg+xml</dc:format>
        <dc:type
           rdf:resource="http://purl.org/dc/dcmitype/StillImage" />
      </cc:Work>
    </rdf:RDF>
  </metadata>
  <defs
     id="defs14" />
  <sodipodi:namedview
     pagecolor="#ffffff"
     bordercolor="#666666"
     borderopacity="1"
     objecttolerance="10"
     gridtolerance="10"
     guidetolerance="10"
     inkscape:pageopacity="0"
     inkscape:pageshadow="2"
     inkscape:window-width="1366"
     inkscape:window-height="708"
     id="namedview12"
     showgrid="true"
     inkscape:zoom="29.5"
     inkscape:cx="8.5784559"
     inkscape:cy="6.1697945"
     inkscape:window-x="0"
     inkscape:window-y="30"
     inkscape:window-maximized="1"
     inkscape:current-layer="svg10">
    <inkscape:grid
       type="xygrid"
       id="grid823" />
  </sodipodi:namedview>
  <path
     inkscape:connector-curvature="0"
     id="path4"
     overflow="visible"
     style="color:#bebebe;overflow:visible;opacity:0.35;fill:#666666;marker:none;fill-opacity:1"
     d="M 8,3 V 8 H 3 v 3 H 13 V 3 Z"
     sodipodi:nodetypes="ccccccc" />
  <path
     inkscape:connector-curvature="0"
     id="path6"
     overflow="visible"
     style="color:#000000;overflow:visible;fill:#666666;marker:none;fill-opacity:1"
     d="M 7,3 3,7 h 4 z"
     sodipodi:nodetypes="cccc" />
  <path
     style="opacity:1;fill:#666666;fill-opacity:1;stroke:none;stroke-width:2;stroke-linecap:round;stroke-linejoin:miter;stroke-miterlimit:4;stroke-dasharray:none;stroke-opacity:1;paint-order:markers stroke fill"
     d="M 2.0019531 1 C 1.4470834 1 1 1.446 1 2 L 1 12 C 1 12.554 1.4470834 13 2.0019531 13 L 13.998047 13 C 14.552917 13 15 12.554 15 12 L 15 2 C 15 1.446 14.552917 1 13.998047 1 L 2.0019531 1 z M 2 2 L 14 2 L 14 12 L 2 12 L 2 2 z "
     id="rect825" />
  <rect
     style="opacity:1;fill:#666666;fill-opacity:1;stroke:none;stroke-width:1.99999988;stroke-linecap:round;stroke-linejoin:miter;stroke-miterlimit:4;stroke-dasharray:none;stroke-opacity:1;paint-order:markers stroke fill"
     id="rect833"
     width="8"
     height="1"
     x="4"
     y="14"
     rx="0"
     ry="0" />
</svg>

<svg xmlns="http://www.w3.org/2000/svg" width="16" height="16"><path overflow="visible" style="marker:none" d="M8 3v5H3v3h10V3z" color="#5d656b" opacity=".35" fill="#5d656b"/><path overflow="visible" style="marker:none" d="M7 3L3 7h4z" color="#000" fill="#5d656b"/><path d="M2.002 1A.999.999 0 0 0 1 2v10c0 .554.447 1 1.002 1h11.996A.999.999 0 0 0 15 12V2c0-.554-.447-1-1.002-1H2.002zM2 2h12v10H2V2z" fill="#5d656b" paint-order="markers stroke fill"/><rect width="8" height="1" x="4" y="14" rx="0" ry="0" fill="#5d656b" paint-order="markers stroke fill"/></svg>
